X:1
T:Once My Way Was Dark and Dreary
T:Once My Way Was Dark and Dreary
T:Bentley DeForest Ackley
T:Eliza Edmunds Hewitt, 1916
T:Public Domain Courtesy of the Cyber Hymnal™
T:Public Domain Courtesy of the Cyber Hymnal™
C:Bentley DeForest Ackley
Z:Public Domain
Z:Courtesy of the Cyber Hymnal™
%%score ( 1 2 ) ( 3 4 )
L:1/8
Q:1/4=108
M:4/4
K:Eb
V:1 treble 
V:2 treble 
V:3 bass 
V:4 bass 
V:1
 [EB]>[E=A] | [Ec]2 [EB]2 [EA]2 [EG]2 | [CG]2 [CF]4 [CF]>[CE] | [B,D]2 [DF]2 [DB]2 [DA]2 | %4
w: 1.~Once my|way was dark and|drear- y, For my|heart was full of|
w: 2.~There is|grace for all the|low- ly, Grace to|keep the trust- ing|
w: 3.~Let me|spread a- broad the|stor- y, O- ther|souls to Jes- us|
 [EG]6 [EB]>[E=A] | [Ec]2 [EB]2 [EA]2 [EG]2 | [CG]2 [CF]4 [CF]>[CE] | %7
w: sin, But the|sky is bright and|cheer- y, Since the|
w: soul: Pow’r to|cleanse and make me|ho- ly, Je- sus|
w: win; For the|cross is now my|glor- y, Since the|
 [B,D]>[DF] [DB]>[DA] [DG]2 [DF]2 | E6 ||"^Refrain" [EG]>[FA] | [GB]>[^F=A] [GB]>[FA] [GB]2 [Ac]2 | %11
w: full- ness of His love came|in.|||
w: shall my yielde- d life con-|trol.|I can|ne- ver tell how much I|
w: full- ness of His love came|in.|||
 [GB]2 [EG]4 E>[EF] | [EG]>[E^F] [EG]>[EF] [EG]2 [EA]2 | [EG]6 [B,F]>[B,F] | %14
w: |||
w: love Him, I can|ne- ver tell His love for|me, For it|
w: |||
 [B,D]2 [DB]2 [DB]2 [EB]2 | [Gc]2 [GB]2 [F=A]2 [EG]2 | [DF]2 [Fd]2 [Fd] [Ec]3 | [DB]6 [EG]>[DA] | %18
w: ||||
w: pass- eth hu- man|meas- ure, Like a|deep, un- fa- thomed|sea; ’Tis re-|
w: ||||
 [EB]>[E=A] [EB]>[EA] [EB]2 [Ec]2 | [EB]2 [EG]4 E>[EF] | [EG]>[E^F] [EG]>[EF] [EG]2 [EA]2 | %21
w: |||
w: deem- ing love in Christ my|Sav- ior, In my|soul the heav’n- ly joys be-|
w: |||
 [EG]6 [B,F]>[B,E] | [B,D]2 [DB]2 [Ac]2 [Ad]2 | [Gf]2 [Ge]2 [Bd]2 [Ac]2 | %24
w: |||
w: gin; And I|live for Je- sus|on- ly, Since the|
w: |||
 [GB]>[G=A] [GB]>[Gc] [DG]2 [DF]2 | E6 |] %26
w: ||
w: full- ness of His love came|in.|
w: ||
V:2
 x2 | x8 | x8 | x8 | x8 | x8 | x8 | x8 | E6 || x2 | x8 | x6 E3/2 x/ | x8 | x8 | x8 | x8 | x8 | x8 | %18
 x8 | x6 E3/2 x/ | x8 | x8 | x8 | x8 | x8 | E6 |] %26
V:3
 [E,G,]>[E,^F,] | [E,A,]2 [E,G,]2 [E,C]2 [E,B,]2 | [A,,A,]2 [A,,A,]4 [A,,A,]>[A,,F,] | %3
w: ~ ~|~ ~ ~ ~|~ ~ ~ ~|
 [B,,F,]2 [B,,B,]2 [B,,B,]2 [B,,B,]2 | [E,B,]6 [E,G,]>[E,^F,] | [E,A,]2 [E,G,]2 [E,C]2 [E,B,]2 | %6
w: ~ ~ ~ ~|~ ~ ~|~ ~ ~ ~|
 [A,,A,]2 [A,,A,]4 [A,,A,]>[A,,A,] | [B,,A,]>[B,,A,] [B,,F,]>[B,,C] [B,,B,]2 [B,,A,]2 | [E,G,]6 || %9
w: ~ ~ ~ ~|~ ~ ~ ~ ~ ~|~|
 [E,B,]>[E,B,] | [E,E]>[E,E] [E,E]>[E,E] [E,E]2 [E,E]2 | [E,E]2 [E,B,]4 [E,G,]>[E,A,] | %12
w: ~ ~|~ ~ ~ ~ ~ ~|~ ~ ~ ~|
 [E,B,]>[E,=A,] [E,B,]>[E,A,] [E,B,]2 [E,C]2 | [E,B,]6 [E,A,]>[E,G,] | %14
w: ~ ~ ~ ~ ~ ~|~ ~ ~|
 [B,,F,]2 [B,,F,]2 [C,F,]2 [D,B,]2 | [E,B,]2 [E,B,]2 [E,B,]2 [E,B,]2 | %16
w: ~ ~ ~ ~|~ ~ ~ ~|
 [F,B,]2 [F,B,]2 [F,=A,] [F,B,]3 | B,6 [G,B,]>[F,B,] | %18
w: ~ ~ ~ ~|~ deep, un-|
 [E,G,]>[E,^F,] [E,G,]>[E,F,] [E,G,]2 [E,A,]2 | [E,G,]2 [E,B,]4 [E,G,]>[E,A,] | %20
w: fa- thomed sea, * * *||
 [E,B,]>[E,=A,] [E,B,]>[E,A,] [E,B,]2 [E,C]2 | [E,B,]6 [E,A,]>[E,G,] | %22
w: ||
 [B,,F,]2 [B,,F,]2 [B,,B,]2 [B,,B,]2 | [E,B,]2 [E,E]2 [A,E]2 [A,E]2 | %24
w: ||
 [B,E]>[B,E] [B,E]>[B,E] [B,,B,]2 [B,,A,]2 | [E,G,]6 |] %26
w: ||
V:4
 x2 | x8 | x8 | x8 | x8 | x8 | x8 | x8 | x6 || x2 | x8 | x8 | x8 | x8 | x8 | x8 | x8 | %17
 B,,>C, D,>C, B,,A, x2 | x8 | x8 | x8 | x8 | x8 | x8 | x8 | x6 |] %26

